img/svg/icon4.svg

<svg xmlns="http://www.w3.org/2000/svg" preserveAspectRatio="xMidYMid" width="51" height="53" viewBox="0 0 51 53"><defs><style>.cls-2 { fill: #000000; stroke: #ff4700; stroke-linejoin: round; stroke-width: 1px; fill-opacity: 0; }</style></defs><path d="M47.509 47.8l-1.71 1.709-8.746-8.746 1.154-1.97-24-24-1.97 1.154-8.745-8.746 1.709-1.709 9.248 9.247c.326-.46.633-.908.982-1.382 3.852-5.239 7.76-9.477 7.799-9.519.199-.216.478-.338.77-.338.292 0 .571.122.77.338.039.042 3.947 4.28 7.799 9.519 5.263 7.155 7.931 12.71 7.931 16.509 0 3.129-.877 6.049-2.374 8.551l9.383 9.383zm-11.116-6.993c-3.027 3.48-7.453 5.693-12.393 5.693-9.098 0-16.5-7.462-16.5-16.634 0-3.085 1.799-7.353 5.28-12.672l23.613 23.613zm-13.395.621c.893 0 1.785-.105 2.65-.311.273-.065.464-.312.459-.595-.005-.282-.204-.524-.479-.579-6.669-1.35-11.51-7.31-11.51-14.171 0-.215.015-.451.044-.701.034-.291-.144-.564-.422-.647-.278-.083-.575.047-.704.309-1.284 2.605-1.553 4.204-1.553 5.086 0 6.401 5.165 11.609 11.515 11.609z" id="path-1" class="cls-2" fill-rule="evenodd"/></svg>

<svg xmlns="http://www.w3.org/2000/svg" xmlns:xlink="http://www.w3.org/1999/xlink" preserveAspectRatio="xMidYMid" width="51" height="53" viewBox="0 0 51 53">
  <defs>
    <style>

      .cls-2 {
        fill: #000000;
        stroke: #ff4700;
        stroke-linejoin: round;
        stroke-width: 1px;
        fill-opacity: 0;
      }
    </style>
  </defs>
  <path d="M47.509,47.800 C47.509,47.800 45.799,49.509 45.799,49.509 C45.799,49.509 37.053,40.763 37.053,40.763 C37.053,40.763 38.207,38.793 38.207,38.793 C38.207,38.793 14.207,14.793 14.207,14.793 C14.207,14.793 12.237,15.947 12.237,15.947 C12.237,15.947 3.492,7.201 3.492,7.201 C3.492,7.201 5.201,5.492 5.201,5.492 C5.201,5.492 14.449,14.739 14.449,14.739 C14.775,14.279 15.082,13.831 15.431,13.357 C19.283,8.118 23.191,3.880 23.230,3.838 C23.429,3.622 23.708,3.500 24.000,3.500 C24.292,3.500 24.571,3.622 24.770,3.838 C24.809,3.880 28.717,8.118 32.569,13.357 C37.832,20.512 40.500,26.067 40.500,29.866 C40.500,32.995 39.623,35.915 38.126,38.417 C38.126,38.417 47.509,47.800 47.509,47.800 ZM36.393,40.807 C33.366,44.287 28.940,46.500 24.000,46.500 C14.902,46.500 7.500,39.038 7.500,29.866 C7.500,26.781 9.299,22.513 12.780,17.194 C12.780,17.194 36.393,40.807 36.393,40.807 ZM22.998,41.428 C23.891,41.428 24.783,41.323 25.648,41.117 C25.921,41.052 26.112,40.805 26.107,40.522 C26.102,40.240 25.903,39.998 25.628,39.943 C18.959,38.593 14.118,32.633 14.118,25.772 C14.118,25.557 14.133,25.321 14.162,25.071 C14.196,24.780 14.018,24.507 13.740,24.424 C13.462,24.341 13.165,24.471 13.036,24.733 C11.752,27.338 11.483,28.937 11.483,29.819 C11.483,36.220 16.648,41.428 22.998,41.428 Z" id="path-1" class="cls-2" fill-rule="evenodd"/>
</svg>
